X:547
T:Reel 547
M:4/4
K:Gmaj
L:1/8
g2bg dBAG|g2fg abc'a|g2bg dBGB|cAfA gGG2|g2bg dBGB|c2fc Ac'ba|b2af gfec|BdAB c2G2|d'bc'a bgab|c'bag fgac'|bgaf gfdg|cBAc BGG2|bgab gfeg|fdab c'2bc'|d'bc'a bgaf|gedc BGG2|
